app/dist/common/images/kingswood-acquisition.svg

<svg height="18" viewBox="0 0 18 18" width="18" xmlns="http://www.w3.org/2000/svg"><path d="m0 0h18v18h-18z" fill="#f0f3fa"/><path d="m5.33 5h-1.33l3 4h4l3-4h-1.33l-2.67 3.33v-3.33h-2v3.33zm2.84-1.17.83.84.83-.84-.83-.83z" fill="#621632"/><path d="m11 9h-4l-3 4h1.33l2.67-3.5v3.5h2v-3.5l2.67 3.5h1.33z" fill="#414342"/></svg>

<!-- by TradingView --><svg width="18" height="18" viewBox="0 0 18 18" xmlns="http://www.w3.org/2000/svg"><path fill="#F0F3FA" d="M0 0h18v18H0z"/><path d="M5.33 5H4l3 4h4l3-4h-1.33L10 8.33V5H8v3.33L5.33 5ZM8.17 3.83l.83.84.83-.84L9 3l-.83.83Z" fill="#621632"/><path d="M11 9H7l-3 4h1.33L8 9.5V13h2V9.5l2.67 3.5H14l-3-4Z" fill="#414342"/></svg>
